wp-fail2ban/admin/img/docs.svg

<?xml version="1.0" encoding="UTF-8"?>
<svg xmlns="http://www.w3.org/2000/svg" xmlns:xlink="http://www.w3.org/1999/xlink" viewBox="0 0 26 26" version="1.1" width="16px" height="16px">
<g id="surface1">
<path style=" " d="M 7 0 C 4.796875 0 3 1.796875 3 4 L 3 22 C 3 24.203125 4.796875 26 7 26 L 19 26 C 21.203125 26 23 24.203125 23 22 L 23 8 C 23 6.9375 22.027344 5.929688 20.28125 4.21875 C 20.039063 3.980469 19.777344 3.714844 19.53125 3.46875 C 19.285156 3.222656 19.019531 2.992188 18.78125 2.75 C 17.070313 1.003906 16.0625 0 15 0 Z M 7 2 L 14.28125 2 C 15.003906 2.183594 15 3.050781 15 3.9375 L 15 7 C 15 7.550781 15.449219 8 16 8 L 19 8 C 19.996094 8 21 8.003906 21 9 L 21 22 C 21 23.105469 20.105469 24 19 24 L 7 24 C 5.894531 24 5 23.105469 5 22 L 5 4 C 5 2.894531 5.894531 2 7 2 Z M 7.8125 10 C 7.261719 10.050781 6.855469 10.542969 6.90625 11.09375 C 6.957031 11.644531 7.449219 12.050781 8 12 L 18 12 C 18.359375 12.003906 18.695313 11.816406 18.878906 11.503906 C 19.058594 11.191406 19.058594 10.808594 18.878906 10.496094 C 18.695313 10.183594 18.359375 9.996094 18 10 L 8 10 C 7.96875 10 7.9375 10 7.90625 10 C 7.875 10 7.84375 10 7.8125 10 Z M 7.8125 14 C 7.261719 14.050781 6.855469 14.542969 6.90625 15.09375 C 6.957031 15.644531 7.449219 16.050781 8 16 L 16 16 C 16.359375 16.003906 16.695313 15.816406 16.878906 15.503906 C 17.058594 15.191406 17.058594 14.808594 16.878906 14.496094 C 16.695313 14.183594 16.359375 13.996094 16 14 L 8 14 C 7.96875 14 7.9375 14 7.90625 14 C 7.875 14 7.84375 14 7.8125 14 Z M 7.8125 18 C 7.261719 18.050781 6.855469 18.542969 6.90625 19.09375 C 6.957031 19.644531 7.449219 20.050781 8 20 L 18 20 C 18.359375 20.003906 18.695313 19.816406 18.878906 19.503906 C 19.058594 19.191406 19.058594 18.808594 18.878906 18.496094 C 18.695313 18.183594 18.359375 17.996094 18 18 L 8 18 C 7.96875 18 7.9375 18 7.90625 18 C 7.875 18 7.84375 18 7.8125 18 Z "/>
</g>
</svg>

<svg xmlns="http://www.w3.org/2000/svg" viewBox="0 0 26 26" width="16" height="16"><path d="M7 0C4.797 0 3 1.797 3 4v18c0 2.203 1.797 4 4 4h12c2.203 0 4-1.797 4-4V8c0-1.063-.973-2.07-2.719-3.781-.242-.239-.504-.504-.75-.75s-.511-.477-.75-.719C17.071 1.004 16.063 0 15 0zm0 2h7.281c.723.184.719 1.05.719 1.938V7c0 .55.45 1 1 1h3c.996 0 2 .004 2 1v13a2 2 0 01-2 2H7a2 2 0 01-2-2V4a2 2 0 012-2zm.813 8c-.551.05-.958.543-.907 1.094.051.55.543.957 1.094.906h10c.36.004.695-.184.879-.496a1.01 1.01 0 000-1.008c-.184-.312-.52-.5-.879-.496H7.813zm0 4c-.551.05-.958.543-.907 1.094.051.55.543.957 1.094.906h8c.36.004.695-.184.879-.496a1.01 1.01 0 000-1.008c-.184-.312-.52-.5-.879-.496H7.813zm0 4c-.551.05-.958.543-.907 1.094.051.55.543.957 1.094.906h10c.36.004.695-.184.879-.496a1.01 1.01 0 000-1.008c-.184-.312-.52-.5-.879-.496H7.813z"/></svg>
